X:205
T:Texas Twister
M:C|
C:© Paul Gitlitz 2008
K:Dm
"Dm"FEFG FEDE|FEFG FEDE|FEFG FEDE|"D"^FA2F A2DE|!
"Dm"FEFG FEDE|FEFG FEDE|"D"^FA2B "A7"^cBAG|^F=FE2 "D"D4:|!
K:D
|:"D6"f4 "F#m7b5"d4|"G7"B4 "A7"A4|"D6"FGAF "F#m7b5"GABG|"F"ABcA "E7"Bcde|!
"D6"f4 "F#m7b5"d4|"G7"B4 "G#m7b5"A4|"A7"FGAF "Bdim7"GABc|"C#dim7"dBAF "D6"D4:|]
